_inc/systems/logos/auto-educational.svg

<?xml version="1.0" encoding="utf-8"?>
<svg version="1.1" id="Warstwa_1" x="0px" y="0px" viewBox="0 0 200 40" xmlns="http://www.w3.org/2000/svg">
  <path d="M 33.763 22.12 L 28.063 22.12 L 27.673 24.4 L 34.663 24.4 L 33.823 29.2 L 21.133 29.2 L 24.433 10.45 L 36.973 10.45 L 35.413 15.25 L 29.263 15.25 L 28.843 17.77 L 34.543 17.77 Z M 37.032 29.2 L 40.332 10.45 L 48.312 10.45 C 50.892 10.45 52.727 10.905 53.817 11.815 C 54.907 12.725 55.452 14.2 55.452 16.24 C 55.452 17.28 55.332 18.48 55.092 19.84 C 54.492 23.2 53.467 25.6 52.017 27.04 C 50.567 28.48 48.232 29.2 45.012 29.2 Z M 47.532 15.25 L 45.162 15.25 L 43.572 24.4 L 45.942 24.4 C 46.722 24.4 47.302 24.305 47.682 24.115 C 48.062 23.925 48.312 23.49 48.432 22.81 L 49.482 16.84 C 49.502 16.72 49.512 16.56 49.512 16.36 C 49.512 15.9 49.352 15.6 49.032 15.46 C 48.712 15.32 48.212 15.25 47.532 15.25 Z M 64.961 10.45 L 62.471 24.52 L 64.511 24.52 C 65.211 24.52 65.711 24.425 66.011 24.235 C 66.311 24.045 66.521 23.61 66.641 22.93 L 68.861 10.45 L 74.561 10.45 L 72.701 20.98 C 72.401 22.68 72.056 24.05 71.666 25.09 C 71.276 26.13 70.731 27.01 70.031 27.73 C 69.331 28.45 68.466 28.95 67.436 29.23 C 66.406 29.51 65.101 29.65 63.521 29.65 C 61.101 29.65 59.406 29.285 58.436 28.555 C 57.466 27.825 56.981 26.57 56.981 24.79 C 56.981 23.81 57.121 22.54 57.401 20.98 L 59.261 10.45 Z M 87.491 23.83 L 87.011 28.87 C 85.731 29.39 84.111 29.65 82.151 29.65 C 79.631 29.65 77.826 29.16 76.736 28.18 C 75.646 27.2 75.101 25.69 75.101 23.65 C 75.101 22.79 75.241 21.52 75.521 19.84 C 76.121 16.4 77.156 13.9 78.626 12.34 C 80.096 10.78 82.421 10 85.601 10 C 86.341 10 87.186 10.075 88.136 10.225 C 89.086 10.375 89.781 10.56 90.221 10.78 L 88.541 15.37 C 87.361 15.09 86.256 14.95 85.226 14.95 C 84.196 14.95 83.461 15.05 83.021 15.25 C 82.581 15.45 82.311 15.85 82.211 16.45 L 80.831 24.31 C 81.551 24.47 82.291 24.55 83.051 24.55 C 84.671 24.55 86.151 24.31 87.491 23.83 Z M 93.85 29.2 L 87.85 29.2 L 95.74 10.45 L 104.56 10.45 L 105.88 29.2 L 99.85 29.2 L 99.73 26.23 L 95.02 26.23 Z M 98.98 16.21 L 96.88 21.46 L 99.28 21.46 L 99.28 16.21 Z M 121.839 15.25 L 117.699 15.25 L 115.269 29.2 L 109.569 29.2 L 111.999 15.25 L 107.889 15.25 L 108.759 10.45 L 122.709 10.45 Z M 121.569 29.2 L 124.869 10.45 L 130.569 10.45 L 127.269 29.2 Z M 138.278 16.72 L 136.898 24.52 L 139.268 24.52 C 140.048 24.52 140.628 24.425 141.008 24.235 C 141.388 24.045 141.638 23.61 141.758 22.93 L 143.138 15.13 L 140.738 15.13 C 139.978 15.13 139.408 15.225 139.028 15.415 C 138.648 15.605 138.398 16.04 138.278 16.72 Z M 141.728 10 C 144.268 10 146.078 10.495 147.158 11.485 C 148.238 12.475 148.778 14 148.778 16.06 C 148.778 18.12 148.453 20.275 147.803 22.525 C 147.153 24.775 146.123 26.525 144.713 27.775 C 143.303 29.025 141.243 29.65 138.533 29.65 C 135.823 29.65 133.928 29.155 132.848 28.165 C 131.768 27.175 131.228 25.65 131.228 23.59 C 131.228 22.61 131.368 21.315 131.648 19.705 C 131.928 18.095 132.298 16.705 132.758 15.535 C 133.218 14.365 133.838 13.35 134.618 12.49 C 136.118 10.83 138.488 10 141.728 10 Z M 160.177 29.2 L 157.117 22.54 C 157.037 22.4 156.997 22.205 156.997 21.955 C 156.997 21.705 157.017 21.42 157.057 21.1 L 156.817 21.1 L 155.407 29.2 L 149.707 29.2 L 153.007 10.45 L 158.377 10.45 L 161.437 17.11 C 161.497 17.25 161.527 17.445 161.527 17.695 C 161.527 17.945 161.507 18.23 161.467 18.55 L 161.707 18.55 L 163.147 10.45 L 168.847 10.45 L 165.547 29.2 Z M 173.616 29.2 L 167.616 29.2 L 175.506 10.45 L 184.326 10.45 L 185.646 29.2 L 179.616 29.2 L 179.496 26.23 L 174.786 26.23 Z M 178.746 16.21 L 176.646 21.46 L 179.046 21.46 L 179.046 16.21 Z M 199.026 29.2 L 187.626 29.2 L 190.926 10.45 L 196.626 10.45 L 194.166 24.4 L 199.866 24.4 Z" style="fill: rgb(255, 255, 255); white-space: pre;"/>
  <path d="M 17.633 24.062 L 17.633 10.937 C 17.633 10.418 17.215 10 16.696 10 L 3.883 10 C 1.813 10 0.133 11.679 0.133 13.75 L 0.133 26.25 C 0.133 28.32 1.813 30 3.883 30 L 16.696 30 C 17.215 30 17.633 29.582 17.633 29.062 L 17.633 28.437 C 17.633 28.144 17.497 27.879 17.286 27.707 C 17.122 27.105 17.122 25.39 17.286 24.789 C 17.497 24.621 17.633 24.355 17.633 24.062 Z M 5.133 15.234 C 5.133 15.105 5.239 15 5.368 15 L 13.649 15 C 13.778 15 13.883 15.105 13.883 15.234 L 13.883 16.015 C 13.883 16.144 13.778 16.25 13.649 16.25 L 5.368 16.25 C 5.239 16.25 5.133 16.144 5.133 16.015 L 5.133 15.234 Z M 5.133 17.734 C 5.133 17.605 5.239 17.5 5.368 17.5 L 13.649 17.5 C 13.778 17.5 13.883 17.605 13.883 17.734 L 13.883 18.515 C 13.883 18.644 13.778 18.75 13.649 18.75 L 5.368 18.75 C 5.239 18.75 5.133 18.644 5.133 18.515 L 5.133 17.734 Z M 15.032 27.5 L 3.883 27.5 C 3.192 27.5 2.633 26.941 2.633 26.25 C 2.633 25.562 3.196 25 3.883 25 L 15.032 25 C 14.958 25.668 14.958 26.832 15.032 27.5 Z" style="fill: rgb(204, 204, 204);"/>
</svg>

<svg xmlns="http://www.w3.org/2000/svg" viewBox="0 0 200 40"><path d="M33.76 22.12h-5.7l-.39 2.28h7l-.85 4.8H21.13l3.3-18.75h12.54l-1.56 4.8h-6.15l-.42 2.52h5.7Zm3.27 7.08 3.3-18.75h7.98q3.88 0 5.5 1.37 1.65 1.36 1.64 4.42 0 1.56-.36 3.6-.9 5.04-3.07 7.2-2.18 2.16-7 2.16Zm10.5-13.95h-2.37l-1.59 9.15h2.37q1.17 0 1.74-.29t.75-1.3l1.05-5.97q.03-.18.03-.48 0-.69-.48-.9a4 4 0 0 0-1.5-.21m17.43-4.8-2.49 14.07h2.04q1.05 0 1.5-.29t.63-1.3l2.22-12.48h5.7L72.7 20.98q-.45 2.55-1.03 4.11a8 8 0 0 1-1.64 2.64 5.6 5.6 0 0 1-2.6 1.5q-1.54.42-3.9.42-3.64 0-5.1-1.1t-1.45-3.76q0-1.47.42-3.81l1.86-10.53ZM87.5 23.83l-.48 5.04q-1.92.78-4.86.78-3.78 0-5.41-1.47t-1.64-4.53q0-1.29.42-3.81.9-5.16 3.1-7.5Q80.85 10 85.6 10q1.11 0 2.54.22 1.42.23 2.08.56l-1.68 4.59a14 14 0 0 0-3.31-.42q-1.55 0-2.2.3-.67.3-.82 1.2l-1.38 7.86q1.08.24 2.22.24 2.43 0 4.44-.72m6.36 5.37h-6l7.89-18.75h8.82l1.32 18.75h-6.03l-.12-2.97h-4.71Zm5.13-12.99-2.1 5.25h2.4v-5.25Zm22.86-.96h-4.14l-2.43 13.95h-5.7L112 15.25h-4.11l.87-4.8h13.95Zm-.27 13.95 3.3-18.75h5.7l-3.3 18.75Zm16.7-12.48-1.37 7.8h2.37q1.17 0 1.74-.29t.75-1.3l1.38-7.8h-2.4q-1.14 0-1.71.28-.57.3-.75 1.31m3.46-6.72q3.81 0 5.43 1.48 1.62 1.5 1.62 4.58 0 3.1-.98 6.47t-3.09 5.24q-2.1 1.88-6.18 1.88-4.05 0-5.68-1.48-1.62-1.5-1.62-4.58 0-1.46.42-3.89.42-2.41 1.1-4.16a10 10 0 0 1 1.87-3.05q2.25-2.49 7.1-2.49m18.45 19.2-3.06-6.66a1 1 0 0 1-.12-.59q0-.37.06-.85h-.24l-1.41 8.1h-5.7l3.3-18.75h5.37l3.06 6.66q.09.21.09.59 0 .37-.06.85h.24l1.44-8.1h5.7l-3.3 18.75Zm13.44 0h-6l7.89-18.75h8.82l1.32 18.75h-6.03l-.12-2.97h-4.71Zm5.13-12.99-2.1 5.25h2.4v-5.25Zm20.28 12.99h-11.4l3.3-18.75h5.7l-2.46 13.95h5.7Z" style="fill:#fff;white-space:pre"/><path d="M17.63 24.06V10.94a.94.94 0 0 0-.93-.94H3.88a3.75 3.75 0 0 0-3.75 3.75v12.5A3.75 3.75 0 0 0 3.88 30H16.7c.52 0 .93-.42.93-.94v-.62q-.01-.46-.34-.73a9 9 0 0 1 0-2.92 1 1 0 0 0 .34-.73m-12.5-8.83c0-.12.1-.23.24-.23h8.28q.21.02.23.23v.79c0 .12-.1.23-.23.23H5.37a.24.24 0 0 1-.24-.23zm0 2.5c0-.12.1-.23.24-.23h8.28q.21.02.23.23v.79c0 .12-.1.23-.23.23H5.37a.24.24 0 0 1-.24-.23zm9.9 9.77H3.88a1.25 1.25 0 1 1 0-2.5h11.15a14 14 0 0 0 0 2.5" style="fill:#ccc"/></svg>
